X:175
T:Ladies Favourite, The
M:2/4
L:1/8
B:Thompson's Compleat Collection of 200 Favourite Country Dances, vol. 1 (London, 1757)
Z:Transcribed and edited by Flynn Titford-Mock, 2007
Z:abc's:AK/Fiddler's Companion
K:A
c2 (c/B/)A|d2 (d/c/)B|c2 (c/B/)A|GB B2|c2 (c/B/)A|d2 (d/c/)B|(c/d/e) (f/g/a)|cA A2:|
|:a2 (a/g/)f|g2 (g/f/)e|f2 (f/e/)d|ce e2|a2 (a/g/)f|g2 (g/f/)e|(c/d/e) (f/g/a)|cA A2|
cAfd|ecdB|cAdB|GB B2|cAfd|ecdB|c/d/e f/g/a|cA A2:|

